packages/core/src/svgs/tkx.svg

<svg width="24" height="24" viewBox="0 0 24 24" fill="none" xmlns="http://www.w3.org/2000/svg">
<g clip-path="url(#clip0_31_19814)">
<path d="M0 0H24V24H0V0Z" fill="#F26829"/>
<path fill-rule="evenodd" clip-rule="evenodd" d="M7.55136 14.7173C7.18268 14.1584 6.94802 13.5218 6.86565 12.8573C6.86565 12.8573 8.31851 12.8445 8.57136 12.8573V11.143H5.21136C5.18565 11.143 5.17279 11.143 5.16851 11.1688C5.14279 11.5202 5.13851 11.8459 5.14708 12.1459C5.19237 13.7575 5.79984 15.3024 6.8643 16.5133C7.92877 17.7241 9.38317 18.5245 10.9757 18.7759C12.5597 19.015 14.1774 18.6909 15.5471 17.86C16.9168 17.0291 17.9516 15.7441 18.4714 14.2288C18.7071 13.5559 18.8357 12.8102 18.8528 11.9959C18.8554 11.8112 18.8454 11.6264 18.8228 11.443C18.7394 10.5074 18.4659 9.59861 18.019 8.77238C17.5721 7.94615 16.9611 7.21988 16.2236 6.63807C15.4861 6.05626 14.6376 5.63117 13.7301 5.38883C12.8225 5.1465 11.875 5.09203 10.9457 5.22876C8.58851 5.59305 6.53136 7.21305 5.66136 9.43305H7.43136C7.98533 8.49994 8.80859 7.75622 9.79299 7.29958C10.7774 6.84295 11.8769 6.69476 12.9471 6.87448C13.7061 6.99662 14.4256 7.29617 15.0471 7.74876C15.0514 7.75183 15.0545 7.75642 15.0557 7.76162V7.77019L15.0514 7.77876L11.9999 10.813C11.9971 10.8158 11.9938 10.818 11.9901 10.8195C11.9864 10.8209 11.9825 10.8217 11.9785 10.8216C11.9745 10.8217 11.9706 10.8209 11.9669 10.8195C11.9633 10.818 11.9599 10.8158 11.9571 10.813L10.6714 9.52305C10.6709 9.52181 10.6702 9.52069 10.6693 9.51978C10.6684 9.51886 10.6672 9.51817 10.666 9.51775C10.6647 9.51734 10.6634 9.51721 10.6621 9.51739C10.6608 9.51756 10.6596 9.51803 10.6585 9.51876L9.49708 10.6759C9.49408 10.6786 9.49174 10.6819 9.49025 10.6856C9.48877 10.6893 9.48817 10.6933 9.48851 10.6973C9.48851 10.7016 9.48851 10.7102 9.49708 10.7145L10.7785 11.9873L10.7871 12.013C10.7871 12.0216 10.7871 12.0302 10.7785 12.0345L9.49279 13.3202C9.48422 13.3245 9.48422 13.333 9.49279 13.3416L10.6199 14.4773C10.6228 14.4801 10.6261 14.4823 10.6298 14.4838C10.6335 14.4852 10.6374 14.486 10.6414 14.4859C10.646 14.4866 10.6508 14.4862 10.6552 14.4847C10.6597 14.4832 10.6638 14.4807 10.6671 14.4773L11.9528 13.1916C11.956 13.1897 11.9597 13.1887 11.9635 13.1887C11.9673 13.1887 11.971 13.1897 11.9742 13.1916H11.9785L14.9571 16.1616C14.9616 16.1656 14.9653 16.1706 14.9678 16.1761C14.9703 16.1817 14.9716 16.1877 14.9716 16.1938C14.9716 16.1998 14.9703 16.2059 14.9678 16.2114C14.9653 16.2169 14.9616 16.2219 14.9571 16.2259C14.015 16.8823 12.8909 17.227 11.7428 17.2116C10.7656 17.1773 9.86565 16.8902 9.04279 16.3373C8.75082 16.1462 8.48562 15.9171 8.25422 15.6559C7.99878 15.3595 7.76394 15.0459 7.55136 14.7173ZM16.2342 15.0345C16.9977 14.0021 17.3423 12.719 17.1985 11.443C17.1087 10.5429 16.7737 9.68461 16.2299 8.96162C16.2217 8.95828 16.2125 8.95828 16.2042 8.96162C16.1997 8.96218 16.1953 8.96363 16.1914 8.9659L13.1871 11.9745C13.1811 11.9808 13.1777 11.9893 13.1777 11.998C13.1777 12.0068 13.1811 12.0153 13.1871 12.0216L16.1999 15.0388C16.2036 15.0415 16.2082 15.043 16.2128 15.043C16.2174 15.043 16.2219 15.0415 16.2257 15.0388H16.2342V15.0345Z" fill="white"/>
</g>
<defs>
<clipPath id="clip0_31_19814">
<rect width="24" height="24" fill="white"/>
</clipPath>
</defs>
</svg>

<svg xmlns="http://www.w3.org/2000/svg" width="24" height="24" fill="none" viewBox="0 0 24 24"><g clip-path="url(#a)"><path fill="#F26829" d="M0 0h24v24H0z"/><path fill="#fff" fill-rule="evenodd" d="M7.551 14.717a4.35 4.35 0 0 1-.685-1.86s1.453-.012 1.705 0v-1.714h-3.36c-.025 0-.038 0-.042.026-.026.351-.03.677-.022.977a6.91 6.91 0 0 0 5.829 6.63 6.844 6.844 0 0 0 7.495-4.547 7.2 7.2 0 0 0 .382-2.233 4 4 0 0 0-.03-.553 6.9 6.9 0 0 0-7.877-6.214C8.589 5.593 6.53 7.213 5.66 9.433h1.77a5.38 5.38 0 0 1 5.516-2.559 4.9 4.9 0 0 1 2.1.875.02.02 0 0 1 .009.013v.008l-.005.009L12 10.813a.03.03 0 0 1-.021.009l-.012-.002-.01-.007-1.286-1.29-.002-.003-.007-.003-.004.002-1.16 1.157a.03.03 0 0 0-.01.021c0 .005 0 .013.01.018l1.28 1.272.01.026c0 .009 0 .017-.01.021L9.494 13.32q-.014.008 0 .022l1.127 1.135.01.007.011.002a.03.03 0 0 0 .026-.009l1.286-1.285a.02.02 0 0 1 .021 0h.005l2.978 2.97a.04.04 0 0 1 .015.032.04.04 0 0 1-.015.032 5.5 5.5 0 0 1-3.214.986 5.07 5.07 0 0 1-2.7-.875 4 4 0 0 1-.789-.681 9 9 0 0 1-.703-.939m8.683.317a5.08 5.08 0 0 0 .964-3.591 4.95 4.95 0 0 0-.968-2.481.03.03 0 0 0-.026 0l-.013.004-3.004 3.009a.034.034 0 0 0 0 .047l3.013 3.017a.02.02 0 0 0 .026 0h.008z" clip-rule="evenodd"/></g><defs><clipPath id="a"><path fill="#fff" d="M0 0h24v24H0z"/></clipPath></defs></svg>
